archdroid-icon-theme/Archdroid-BlueGreyDark/mimetypes/scalable/image-x-ico.svg

<svg fill="#263238" height="48" viewBox="0 0 48 48" width="48" xmlns="http://www.w3.org/2000/svg"><path d="m10 6c-2.21 0-4 1.79-4 4v28c0 2.21 1.79 4 4 4h28c2.21 0 4-1.79 4-4v-28c0-2.21-1.79-4-4-4zm6.296875 4.349609h1.484375v1.300782h-1.484375zm5.878906 2.796875c.793457 0 1.435384.231446 1.927735.695313.496419.459798.736979 1.045736.720703 1.757812l-.011719.03711h-1.349609c0-.362142-.119304-.669597-.359375-.921875-.236003-.252279-.545248-.378906-.927735-.378906-.557454 0-.953613.202473-1.185547.609374-.231933.402833-.347656.911133-.347656 1.521485v.212891c0 .622558.115723 1.13623.347656 1.539062.231934.398763.628093.597656 1.185547.597656.362142 0 .665853-.106771.914063-.318359.248209-.215658.373047-.483236.373047-.804688h1.341797l.013671.03711c.020345.618489-.23291 1.150065-.757812 1.597656-.520833.447591-1.148275.671875-1.884766.671875-.972493 0-1.719401-.312826-2.240234-.939453-.516764-.626628-.775391-1.420573-.775391-2.380859v-.212891c0-.956218.258627-1.748373.775391-2.375.520833-.630697 1.267741-.945313 2.240234-.945313zm6.585938 0c.948079 0 1.689453.314616 2.226562.945313.541179.626627.8125 1.431315.8125 2.416015v.128907c0 .992838-.271321 1.80306-.8125 2.429687-.537109.622559-1.274902.933594-2.214843.933594-.944011 0-1.687338-.312826-2.228516-.939453-.53711-.626628-.804688-1.435059-.804688-2.423828v-.128907c0-.980631.267578-1.785319.804688-2.416015.545247-.630697 1.284993-.945313 2.216797-.945313zm-12.464844.121094h1.484375v6.603516h-1.484375zm12.464844 1.06836c-.516765 0-.903809.206217-1.160157.617187-.252278.41097-.378906.92806-.378906 1.554687v.128907c0 .642903.126628 1.167317.378906 1.574219.24821.402832.638835.605468 1.171876.605468.516764 0 .903808-.202636 1.160156-.605468.260416-.406902.390625-.931316.390625-1.574219v-.128907c0-.630696-.130209-1.147786-.390625-1.554687-.256348-.41097-.646973-.617187-1.171875-.617187zm.238281 9.664062 9 12h-28l7-9 5 6.009766z" fill="#263238"/></svg>

<svg fill="#263238" height="48" version="1.1" viewBox="0 0 48 48" width="48" xmlns="http://www.w3.org/2000/svg"><path d="M10 6C7.79 6 6 7.79 6 10L6 38C6 40.21 7.79 42 10 42L38 42C40.21 42 42 40.21 42 38L42 10C42 7.79 40.21 6 38 6L10 6zM16.296875 10.349609L17.78125 10.349609 17.78125 11.650391 16.296875 11.650391 16.296875 10.349609zM22.175781 13.146484C22.969238 13.146484 23.611165 13.37793 24.103516 13.841797 24.599935 14.301595 24.840495 14.887533 24.824219 15.599609L24.8125 15.636719 23.462891 15.636719C23.462891 15.274577 23.343587 14.967122 23.103516 14.714844 22.867513 14.462565 22.558268 14.335938 22.175781 14.335938 21.618327 14.335938 21.222168 14.538411 20.990234 14.945312 20.758301 15.348145 20.642578 15.856445 20.642578 16.466797L20.642578 16.679688C20.642578 17.302246 20.758301 17.815918 20.990234 18.21875 21.222168 18.617513 21.618327 18.816406 22.175781 18.816406 22.537923 18.816406 22.841634 18.709635 23.089844 18.498047 23.338053 18.282389 23.462891 18.014811 23.462891 17.693359L24.804688 17.693359 24.818359 17.730469C24.838704 18.348958 24.585449 18.880534 24.060547 19.328125 23.539714 19.775716 22.912272 20 22.175781 20 21.203288 20 20.45638 19.687174 19.935547 19.060547 19.418783 18.433919 19.160156 17.639974 19.160156 16.679688L19.160156 16.466797C19.160156 15.510579 19.418783 14.718424 19.935547 14.091797 20.45638 13.4611 21.203288 13.146484 22.175781 13.146484zM28.761719 13.146484C29.709798 13.146484 30.451172 13.4611 30.988281 14.091797 31.52946 14.718424 31.800781 15.523112 31.800781 16.507812L31.800781 16.636719C31.800781 17.629557 31.52946 18.439779 30.988281 19.066406 30.451172 19.688965 29.713379 20 28.773438 20 27.829427 20 27.0861 19.687174 26.544922 19.060547 26.007812 18.433919 25.740234 17.625488 25.740234 16.636719L25.740234 16.507812C25.740234 15.527181 26.007812 14.722493 26.544922 14.091797 27.090169 13.4611 27.829915 13.146484 28.761719 13.146484zM16.296875 13.267578L17.78125 13.267578 17.78125 19.871094 16.296875 19.871094 16.296875 13.267578zM28.761719 14.335938C28.244954 14.335938 27.85791 14.542155 27.601562 14.953125 27.349284 15.364095 27.222656 15.881185 27.222656 16.507812L27.222656 16.636719C27.222656 17.279622 27.349284 17.804036 27.601562 18.210938 27.849772 18.61377 28.240397 18.816406 28.773438 18.816406 29.290202 18.816406 29.677246 18.61377 29.933594 18.210938 30.19401 17.804036 30.324219 17.279622 30.324219 16.636719L30.324219 16.507812C30.324219 15.877116 30.19401 15.360026 29.933594 14.953125 29.677246 14.542155 29.286621 14.335938 28.761719 14.335938zM29 24L38 36 10 36 17 27 22 33.009766 29 24z"/></svg>
